src/Palette/16/actions/document-preview.svg

<?xml version="1.0" encoding="UTF-8" standalone="no"?>
<!-- Created with Inkscape (http://www.inkscape.org/) -->

<svg
   width="16"
   height="16"
   viewBox="0 0 16 16"
   version="1.1"
   id="svg5"
   inkscape:version="1.4.3 (0d15f75042, 2025-12-25)"
   sodipodi:docname="document-preview.svg"
   xmlns:inkscape="http://www.inkscape.org/namespaces/inkscape"
   xmlns:sodipodi="http://sodipodi.sourceforge.net/DTD/sodipodi-0.dtd"
   xmlns="http://www.w3.org/2000/svg"
   xmlns:svg="http://www.w3.org/2000/svg">
  <sodipodi:namedview
     id="namedview7"
     pagecolor="#ffffff"
     bordercolor="#000000"
     borderopacity="0.25"
     inkscape:showpageshadow="2"
     inkscape:pageopacity="0.0"
     inkscape:pagecheckerboard="0"
     inkscape:deskcolor="#d1d1d1"
     inkscape:document-units="px"
     showgrid="false"
     inkscape:zoom="50.4375"
     inkscape:cx="7.9900867"
     inkscape:cy="8"
     inkscape:window-width="1920"
     inkscape:window-height="1010"
     inkscape:window-x="0"
     inkscape:window-y="0"
     inkscape:window-maximized="1"
     inkscape:current-layer="svg5" />
  <defs
     id="defs2">
    <style
       id="current-color-scheme"
       type="text/css">
        .ColorScheme-Text { color:#4d4d4d; } .ColorScheme-Highlight { color:#4285f4; } .ColorScheme-NeutralText { color:#ff9800; } .ColorScheme-PositiveText { color:#4caf50; } .ColorScheme-NegativeText { color:#f44336; }
     </style>
  </defs>
  <path
     id="path1"
     style="opacity:1;fill:currentColor;fill-opacity:1"
     class="ColorScheme-Text"
     d="M 3,0 C 2.44774,5.52e-5 2.00006,0.4477399 2,1 v 12 c 5.52e-5,0.55226 0.44774,0.99994 1,1 H 9.1542969 C 8.2175068,13.640086 7.4640631,12.919707 7.0625,12 H 4 V 2 H 9.5859375 L 12,4.4140625 V 7.0625 c 0.919707,0.4015631 1.640086,1.1550068 2,2.0917969 V 4 C 13.999949,3.7348 13.894571,3.4804787 13.707031,3.2929688 l -3,-3.00000005 C 10.519521,0.10542875 10.2652,5e-5 10,0 Z"
     sodipodi:nodetypes="ccccccccccccccccc" />
  <path
     style="fill:currentColor"
     class="ColorScheme-Text"
     d="m 11.5,12.5 2.278,2.278 c 0,0 0.5,0.5 1,0 0.5,-0.5 0,-1 0,-1 L 12.5,11.5 Z m -3.75,-2 C 7.75,12 9,13.25 10.5,13.25 12,13.25 13.25,12 13.25,10.5 13.25,9 12,7.75 10.5,7.75 9,7.75 7.75,9 7.75,10.5 Z M 10.5,8.75 c 1,0 1.75,0.75 1.75,1.75 0,1 -0.75,1.75 -1.75,1.75 -1,0 -1.75,-0.75 -1.75,-1.75 0,-1 0.75,-1.75 1.75,-1.75 z"
     id="path2" />
</svg>

<svg xmlns="http://www.w3.org/2000/svg" width="16" height="16" version="1.1">
 <defs>
  <style id="current-color-scheme" type="text/css">
   .ColorScheme-Text { color:#4d4d4d; } .ColorScheme-Highlight { color:#4285f4; } .ColorScheme-NeutralText { color:#ff9800; } .ColorScheme-PositiveText { color:#4caf50; } .ColorScheme-NegativeText { color:#f44336; }
  </style>
 </defs>
 <path style="fill:currentColor" class="ColorScheme-Text" d="M 3,0 C 3,0 2,0 2,1 V 13 C 2,14 3,14 3,14 H 9.1934 C 7.7753,13.463 6.75,12.096 6.75,10.5 6.75,8.4444 8.4444,6.75 10.5,6.75 12.096,6.75 13.463,7.7753 14,9.1934 V 4 L 10,0 Z"/>
 <path style="fill:currentColor" class="ColorScheme-Text" d="M 11.5,12.5 13.778,14.778 C 13.778,14.778 14.278,15.278 14.778,14.778 15.278,14.278 14.778,13.778 14.778,13.778 L 12.5,11.5 Z M 7.75,10.5 C 7.75,12 9,13.25 10.5,13.25 12,13.25 13.25,12 13.25,10.5 13.25,9 12,7.75 10.5,7.75 9,7.75 7.75,9 7.75,10.5 Z M 10.5,8.75 C 11.5,8.75 12.25,9.5 12.25,10.5 12.25,11.5 11.5,12.25 10.5,12.25 9.5,12.25 8.75,11.5 8.75,10.5 8.75,9.5 9.5,8.75 10.5,8.75 Z"/>
</svg>
